X:1
T:North Carolina Breakdown
M:C|
L:1/8
K:G
C:Arthur L. Smith
D|"G"GG E/D/E/(F/|G/F/)G/(A/ B/d/)e/f/|"C"gf e/d/e/(f/|"D"g/a/)g/e/ d/B/A/F/|!
"G"G D/(G/ E/D/)E/(F/|G/F/)G/(A/ B/d/)e/f/|"C"gf e/d/B/(A/|"D"d/B/)A/F/ "G"G:|]!
d|"C"[eg][eg]-[eg] [eg]-|[eg] g g/a/ g|"G"[dg][dg]-[dg] [dg]-|[dg] [d/g/][d/g/] [Bg][dg]|!
"C"[eg][eg]-[eg] b-|b b a/g/e/(f/|"G"g/a/)g/e/ d/B/A/(B/|"D"d/B/)A/F/ "G"G:|]!
